assets/photosnap.svg

<svg width="88" height="88" viewBox="0 0 88 88" fill="none" xmlns="http://www.w3.org/2000/svg">
<g id="photosnap">
<g id="Oval" filter="url(#filter0_i)">
<circle cx="44" cy="44" r="44" fill="black"/>
</g>
<g id="Group 8">
<path id="PHOTOSNAP" fill-rule="evenodd" clip-rule="evenodd" d="M39.0815 46.7608C38.697 46.9203 38.2842 47 37.8432 47C37.3969 47 36.9827 46.9203 36.6009 46.7608C36.2191 46.6014 35.887 46.3838 35.6046 46.1081C35.3223 45.8324 35.1005 45.5135 34.9391 45.1514C34.7778 44.7892 34.6971 44.4054 34.6971 44C34.6971 43.5946 34.7778 43.2108 34.9391 42.8486C35.1005 42.4865 35.3223 42.1676 35.6046 41.8919C35.887 41.6162 36.2191 41.3986 36.6009 41.2392C36.9827 41.0797 37.3969 41 37.8432 41C38.2842 41 38.697 41.0797 39.0815 41.2392C39.466 41.3986 39.7995 41.6162 40.0818 41.8919C40.3642 42.1676 40.586 42.4865 40.7473 42.8486C40.9087 43.2108 40.9893 43.5946 40.9893 44C40.9893 44.4054 40.9087 44.7892 40.7473 45.1514C40.586 45.5135 40.3642 45.8324 40.0818 46.1081C39.7995 46.3838 39.466 46.6014 39.0815 46.7608ZM24.5327 45.1351V46.8378H23V41.1622H25.5411C25.853 41.1622 26.1381 41.2122 26.3962 41.3122C26.6543 41.4122 26.8748 41.5514 27.0577 41.7297C27.2405 41.9081 27.3831 42.1189 27.4852 42.3622C27.5874 42.6054 27.6385 42.8676 27.6385 43.1486C27.6385 43.4351 27.5874 43.6986 27.4852 43.9392C27.3831 44.1797 27.2405 44.3892 27.0577 44.5676C26.8748 44.7459 26.6543 44.8851 26.3962 44.9851C26.1381 45.0851 25.853 45.1351 25.5411 45.1351H24.5327ZM24.5327 43.7568H25.4604C25.6433 43.7568 25.7966 43.6959 25.9202 43.5743C26.0439 43.4527 26.1058 43.3108 26.1058 43.1486C26.1058 42.9865 26.0439 42.8446 25.9202 42.723C25.7966 42.6014 25.6433 42.5405 25.4604 42.5405H24.5327V43.7568ZM30.1393 46.8378V44.6486H32.1963V46.8378H33.7291V41.1622H32.1963V43.2703H30.1393V41.1622H28.6065V46.8378H30.1393ZM37.8432 45.6216C37.6227 45.6216 37.4157 45.5811 37.2221 45.5C37.0285 45.4189 36.8617 45.3054 36.7219 45.1595C36.5821 45.0135 36.4718 44.8419 36.3912 44.6446C36.3105 44.4473 36.2702 44.2324 36.2702 44C36.2702 43.7676 36.3105 43.5527 36.3912 43.3554C36.4718 43.1581 36.5821 42.9865 36.7219 42.8405C36.8617 42.6946 37.0285 42.5811 37.2221 42.5C37.4157 42.4189 37.6227 42.3784 37.8432 42.3784C38.0637 42.3784 38.2694 42.4189 38.4604 42.5C38.6513 42.5811 38.818 42.6946 38.9605 42.8405C39.103 42.9865 39.2146 43.1581 39.2953 43.3554C39.376 43.5527 39.4163 43.7676 39.4163 44C39.4163 44.2324 39.376 44.4473 39.2953 44.6446C39.2146 44.8419 39.103 45.0135 38.9605 45.1595C38.818 45.3054 38.6513 45.4189 38.4604 45.5C38.2694 45.5811 38.0637 45.6216 37.8432 45.6216ZM44.5791 42.5405V46.8378H43.0464V42.5405H41.4734V41.1622H46.1522V42.5405H44.5791ZM49.7823 47C50.2233 47 50.6361 46.9203 51.0206 46.7608C51.4051 46.6014 51.7386 46.3838 52.0209 46.1081C52.3033 45.8324 52.5251 45.5135 52.6865 45.1514C52.8478 44.7892 52.9285 44.4054 52.9285 44C52.9285 43.5946 52.8478 43.2108 52.6865 42.8486C52.5251 42.4865 52.3033 42.1676 52.0209 41.8919C51.7386 41.6162 51.4051 41.3986 51.0206 41.2392C50.6361 41.0797 50.2233 41 49.7823 41C49.336 41 48.9219 41.0797 48.54 41.2392C48.1582 41.3986 47.8261 41.6162 47.5438 41.8919C47.2614 42.1676 47.0396 42.4865 46.8782 42.8486C46.7169 43.2108 46.6362 43.5946 46.6362 44C46.6362 44.4054 46.7169 44.7892 46.8782 45.1514C47.0396 45.5135 47.2614 45.8324 47.5438 46.1081C47.8261 46.3838 48.1582 46.6014 48.54 46.7608C48.9219 46.9203 49.336 47 49.7823 47ZM49.1612 45.5C49.3548 45.5811 49.5618 45.6216 49.7823 45.6216C50.0028 45.6216 50.2085 45.5811 50.3995 45.5C50.5904 45.4189 50.7571 45.3054 50.8996 45.1595C51.0421 45.0135 51.1537 44.8419 51.2344 44.6446C51.3151 44.4473 51.3554 44.2324 51.3554 44C51.3554 43.7676 51.3151 43.5527 51.2344 43.3554C51.1537 43.1581 51.0421 42.9865 50.8996 42.8405C50.7571 42.6946 50.5904 42.5811 50.3995 42.5C50.2085 42.4189 50.0028 42.3784 49.7823 42.3784C49.5618 42.3784 49.3548 42.4189 49.1612 42.5C48.9676 42.5811 48.8009 42.6946 48.661 42.8405C48.5212 42.9865 48.411 43.1581 48.3303 43.3554C48.2496 43.5527 48.2093 43.7676 48.2093 44C48.2093 44.2324 48.2496 44.4473 48.3303 44.6446C48.411 44.8419 48.5212 45.0135 48.661 45.1595C48.8009 45.3054 48.9676 45.4189 49.1612 45.5ZM55.6712 47C56.0262 47 56.3435 46.95 56.6231 46.85C56.9028 46.75 57.1394 46.6149 57.333 46.4446C57.5266 46.2743 57.6745 46.077 57.7767 45.8527C57.8789 45.6284 57.93 45.3892 57.93 45.1351C57.93 44.8054 57.8654 44.5351 57.7364 44.3243C57.6073 44.1135 57.446 43.9432 57.2524 43.8135C57.0588 43.6838 56.8477 43.5811 56.6191 43.5054C56.3905 43.4297 56.1795 43.3595 55.9858 43.2946C55.7922 43.2297 55.6309 43.1608 55.5018 43.0878C55.3728 43.0149 55.3082 42.9135 55.3082 42.7838C55.3082 42.6595 55.3633 42.5473 55.4736 42.4473C55.5838 42.3473 55.7304 42.2973 55.9132 42.2973C56.0531 42.2973 56.1795 42.3203 56.2924 42.3662C56.4053 42.4122 56.5021 42.4649 56.5828 42.5243C56.6796 42.5892 56.7657 42.6622 56.8409 42.7432L57.7283 41.8108C57.5992 41.6595 57.4406 41.5243 57.2524 41.4054C57.091 41.3027 56.8867 41.2095 56.6393 41.1257C56.3919 41.0419 56.0961 41 55.7519 41C55.4292 41 55.1361 41.0486 54.8726 41.1459C54.6091 41.2432 54.3846 41.373 54.199 41.5351C54.0135 41.6973 53.8696 41.8838 53.7674 42.0946C53.6652 42.3054 53.6142 42.5216 53.6142 42.7432C53.6142 43.073 53.6787 43.3432 53.8078 43.5541C53.9368 43.7649 54.0982 43.9351 54.2918 44.0649C54.4854 44.1946 54.6965 44.2973 54.925 44.373C55.1536 44.4486 55.3647 44.5189 55.5583 44.5838C55.7519 44.6486 55.9132 44.7176 56.0423 44.7905C56.1714 44.8635 56.2359 44.9649 56.2359 45.0946C56.2359 45.2568 56.1714 45.3986 56.0423 45.5203C55.9132 45.6419 55.7358 45.7027 55.5099 45.7027C55.327 45.7027 55.1617 45.6716 55.0138 45.6095C54.8659 45.5473 54.7382 45.4784 54.6306 45.4027C54.5069 45.3108 54.3967 45.2081 54.2998 45.0946L53.4125 46.027C53.5738 46.2108 53.7647 46.373 53.9852 46.5135C54.1735 46.6378 54.4074 46.75 54.6871 46.85C54.9667 46.95 55.2948 47 55.6712 47ZM60.3501 43.6757V46.8378H58.8174V41.1622H60.1484L62.5685 44.3243V41.1622H64.1012V46.8378H62.7782L60.3501 43.6757ZM66.4003 46.8378L66.8037 45.6216H68.6591L69.0624 46.8378H70.7161L68.5784 41.1622H66.8843L64.7466 46.8378H66.4003ZM72.8942 46.8378V45.1351H73.9026C74.2145 45.1351 74.4995 45.0851 74.7577 44.9851C75.0158 44.8851 75.2363 44.7459 75.4192 44.5676C75.602 44.3892 75.7445 44.1797 75.8467 43.9392C75.9489 43.6986 76 43.4351 76 43.1486C76 42.8676 75.9489 42.6054 75.8467 42.3622C75.7445 42.1189 75.602 41.9081 75.4192 41.7297C75.2363 41.5514 75.0158 41.4122 74.7577 41.3122C74.4995 41.2122 74.2145 41.1622 73.9026 41.1622H71.3615V46.8378H72.8942ZM72.8942 43.7568H73.8219C74.0048 43.7568 74.158 43.6959 74.2817 43.5743C74.4054 43.4527 74.4673 43.3108 74.4673 43.1486C74.4673 42.9865 74.4054 42.8446 74.2817 42.723C74.158 42.6014 74.0048 42.5405 73.8219 42.5405H72.8942V43.7568ZM67.7314 42.7432L67.207 44.4054H68.2557L67.7314 42.7432Z" fill="white"/>
<path id="Path 2" fill-rule="evenodd" clip-rule="evenodd" d="M12 47L16 41L20 47H12Z" fill="url(#paint0_linear)"/>
</g>
</g>
<defs>
<filter id="filter0_i" x="0" y="0" width="88" height="88" filterUnits="userSpaceOnUse" color-interpolation-filters="sRGB">
<feFlood flood-opacity="0" result="BackgroundImageFix"/>
<feBlend mode="normal" in="SourceGraphic" in2="BackgroundImageFix" result="shape"/>
<feColorMatrix in="SourceAlpha" type="matrix" values="0 0 0 0 0 0 0 0 0 0 0 0 0 0 0 0 0 0 127 0" result="hardAlpha"/>
<feOffset/>
<feGaussianBlur stdDeviation="17.5"/>
<feComposite in2="hardAlpha" operator="arithmetic" k2="-1" k3="1"/>
<feColorMatrix type="matrix" values="0 0 0 0 0 0 0 0 0 0 0 0 0 0 0 0 0 0 0.0452633 0"/>
<feBlend mode="normal" in2="shape" result="effect1_innerShadow"/>
</filter>
<linearGradient id="paint0_linear" x1="16" y1="48.5" x2="18.4658" y2="41.9247" gradientUnits="userSpaceOnUse">
<stop stop-color="#FFC593"/>
<stop offset="0.519452" stop-color="#BC7198"/>
<stop offset="1" stop-color="#5A77FF"/>
</linearGradient>
</defs>
</svg>

<svg xmlns="http://www.w3.org/2000/svg" xmlns:xlink="http://www.w3.org/1999/xlink" width="88" height="88"><defs><linearGradient id="c" x1="0%" x2="50%" y1="78.125%" y2="21.875%"><stop offset="0%" stop-color="#FFC593"/><stop offset="51.945%" stop-color="#BC7198"/><stop offset="100%" stop-color="#5A77FF"/></linearGradient><filter id="b" width="139.8%" height="139.8%" x="-19.9%" y="-19.9%" filterUnits="objectBoundingBox"><feGaussianBlur in="SourceAlpha" result="shadowBlurInner1" stdDeviation="17.5"/><feOffset in="shadowBlurInner1" result="shadowOffsetInner1"/><feComposite in="shadowOffsetInner1" in2="SourceAlpha" k2="-1" k3="1" operator="arithmetic" result="shadowInnerInner1"/><feColorMatrix in="shadowInnerInner1" values="0 0 0 0 0 0 0 0 0 0 0 0 0 0 0 0 0 0 0.0452633304 0"/></filter><circle id="a" cx="44" cy="44" r="44"/></defs><g fill="none" fill-rule="evenodd"><use fill="#000" xlink:href="#a"/><use fill="#000" filter="url(#b)" xlink:href="#a"/><path fill="#FFF" fill-rule="nonzero" d="M24.533 46.838v-1.703h1.008c.312 0 .597-.05.855-.15.258-.1.479-.24.662-.417.183-.179.325-.388.427-.629.102-.24.154-.504.154-.79a2.01 2.01 0 00-.154-.787 1.902 1.902 0 00-.427-.632 1.935 1.935 0 00-.662-.418c-.258-.1-.543-.15-.855-.15H23v5.676h1.533zm.927-3.081h-.927V42.54h.927a.63.63 0 01.46.182.579.579 0 010 .851.63.63 0 01-.46.183zm4.68 3.08V44.65h2.056v2.189h1.533v-5.676h-1.533v2.108H30.14v-2.108h-1.532v5.676h1.532zm7.703.163a3.2 3.2 0 002.239-.892c.282-.276.504-.594.665-.957.162-.362.242-.746.242-1.151s-.08-.79-.242-1.151a3.072 3.072 0 00-1.665-1.61A3.2 3.2 0 0037.843 41c-.446 0-.86.08-1.242.24-.382.159-.714.376-.996.652a3.072 3.072 0 00-.666.957A2.798 2.798 0 0034.697 44c0 .405.08.79.242 1.151.161.363.383.681.666.957.282.276.614.493.996.653.382.16.796.239 1.242.239zm0-1.378c-.22 0-.427-.04-.62-.122a1.47 1.47 0 01-.501-.34 1.624 1.624 0 01-.33-.515A1.687 1.687 0 0136.27 44c0-.232.04-.447.121-.645.08-.197.191-.369.33-.514.14-.146.307-.26.501-.341.194-.081.4-.122.621-.122.22 0 .426.04.617.122.191.081.358.195.5.34.143.146.255.318.335.515.081.198.121.413.121.645 0 .232-.04.447-.12.645a1.59 1.59 0 01-.335.514c-.143.146-.31.26-.5.341-.192.081-.397.122-.618.122zm6.736 1.216V42.54h1.573v-1.379h-4.679v1.379h1.573v4.297h1.533zm5.203.162a3.2 3.2 0 002.239-.892c.282-.276.504-.594.665-.957.162-.362.242-.746.242-1.151s-.08-.79-.242-1.151a3.072 3.072 0 00-1.665-1.61A3.2 3.2 0 0049.782 41c-.446 0-.86.08-1.242.24-.382.159-.714.376-.996.652a3.072 3.072 0 00-.666.957A2.798 2.798 0 0046.636 44c0 .405.08.79.242 1.151.162.363.383.681.666.957.282.276.614.493.996.653.382.16.796.239 1.242.239zm0-1.378c-.22 0-.427-.04-.62-.122a1.47 1.47 0 01-.501-.34 1.624 1.624 0 01-.33-.515 1.687 1.687 0 01-.122-.645c0-.232.04-.447.121-.645.081-.197.191-.369.331-.514.14-.146.307-.26.5-.341.194-.081.4-.122.621-.122.22 0 .427.04.617.122.191.081.358.195.5.34.143.146.255.318.335.515.081.198.121.413.121.645 0 .232-.04.447-.12.645a1.59 1.59 0 01-.335.514c-.143.146-.31.26-.5.341-.191.081-.397.122-.618.122zM55.672 47c.354 0 .671-.05.951-.15.28-.1.516-.235.71-.405a1.71 1.71 0 00.597-1.31c0-.33-.065-.6-.194-.81-.129-.211-.29-.382-.484-.511a2.599 2.599 0 00-.633-.309l-.633-.21a2.803 2.803 0 01-.484-.207c-.13-.073-.194-.174-.194-.304 0-.125.055-.237.166-.337a.63.63 0 01.44-.15c.14 0 .265.023.378.07.113.045.21.098.29.157.098.065.184.138.259.22l.887-.933a2.077 2.077 0 00-.476-.406 2.852 2.852 0 00-.613-.28 2.778 2.778 0 00-.887-.125c-.323 0-.616.049-.88.146a2.135 2.135 0 00-.673.39c-.186.161-.33.348-.432.559-.102.21-.153.427-.153.648 0 .33.065.6.194.811.129.21.29.381.484.51.193.13.404.233.633.309l.633.21c.194.066.355.135.484.208.13.073.194.174.194.304a.568.568 0 01-.194.425c-.129.122-.306.183-.532.183-.183 0-.348-.031-.496-.094a2.036 2.036 0 01-.383-.206 2 2 0 01-.331-.308l-.888.932c.162.184.353.346.573.487.188.124.422.236.702.336.28.1.608.15.984.15zm4.678-.162v-3.162l2.428 3.162h1.323v-5.676h-1.533v3.162l-2.42-3.162h-1.33v5.676h1.532zm6.05 0l.404-1.216h1.855l.403 1.216h1.654l-2.138-5.676h-1.694l-2.137 5.676H66.4zm1.856-2.433h-1.049l.524-1.662.525 1.662zm4.638 2.433v-1.703h1.009c.312 0 .597-.05.855-.15.258-.1.478-.24.661-.417.183-.179.326-.388.428-.629.102-.24.153-.504.153-.79a2.01 2.01 0 00-.153-.787 1.902 1.902 0 00-.428-.632 1.935 1.935 0 00-.661-.418c-.258-.1-.543-.15-.855-.15H71.36v5.676h1.533zm.928-3.081h-.928V42.54h.928a.63.63 0 01.46.182.579.579 0 010 .851.63.63 0 01-.46.183z"/><path fill="url(#c)" d="M0 6l4-6 4 6z" transform="translate(12 41)"/></g></svg>
